; EXECUTABLE_BLOCK_START
M73 P0 R0
M201 X20000 Y20000 Z500 E5000
M203 X500 Y500 Z20 E30
M204 P20000 R5000 T20000
M205 X9.00 Y9.00 Z3.00 E2.50 ; sets the jerk limits, mm/sec
M106 S0
M106 P2 S0
; FEATURE: Custom
;===== machine: P1S ========================
;===== date: 20231107 =====================
;===== turn on the HB fan & MC board fan =================
M104 S75 ;set extruder temp to turn on the HB fan and prevent filament oozing from nozzle
M710 A1 S255 ;turn on MC fan by default(P1S)
;===== reset machine status =================
M290 X40 Y40 Z2.6666666
G91
M17 Z0.4 ; lower the z-motor current
G380 S2 Z30 F300 ; G380 is same as G38; lower the hotbed to prevent the nozzle being too close
G380 S2 Z-25 F300 ;
G1 Z5 F300;
G90
M17 X1.2 Y1.2 Z0.75 ; reset motor current to default
M960 S5 P1 ; turn on logo lamp
G90
M220 S100 ;Reset Feedrate
M221 S100 ;Reset Flowrate
M73.2   R1.0 ;Reset left time magnitude
M1002 set_gcode_claim_speed_level : 5
M221 X0 Y0 Z0 ; turn off soft endstop to prevent potential logic problem
G29.1 Z0 ; Set z-offset (Smooth PEI = 0, textured PEI = -0.04)
M204 S10000 ; init ACC set to 10m/s^2

;===== heatbed preheat ====================
M1002 gcode_claim_action : 2
M140 S<HBPTEMP> ;set bed temp
M190 S<HBPTEMP> ;wait for bed temp

;=============turn on fans to prevent PLA jamming=================
    M106 P3 S180
    ;Prevent PLA from jamming
M106 P2 S100 ; turn on big fan ,to cool down toolhead

;===== prepare print temperature and material ==========
M104 S<TOOLTEMP> ;set extruder temp
G91
G0 Z10 F1200
G90
G28 X
M975 S1 ; turn on
G1 X60 F12000
G1 Y245
G1 Y265 F3000
M620 M
M620 S0A   ; switch material if AMS exists
    M109 S<TOOLTEMP>
    G1 X120 F12000

    G1 X20 Y50 F12000
    G1 Y-3
    T0
    G1 X54 F12000
    G1 Y265
    M400
M621 S0A
M620.1 E F523.843 T240

M412 S1 ; ===turn on filament runout detection===

;===== nozzle flush/poop routine
;M109 S250           ;set nozzle to common flush temp
;M106 P1 S0          ;set Fan Speed
;G92 E0              ;set extruder position

;===== *** filament poop (standard E50) ==========
;G1 E50 F200          ;move extruder
;M400                ;finish moves
;M104 S[nozzle_temperature_initial_layer] ;set hotend temperature
;G92 E0              ;set extruder position
;===== *** filament poop (standard E50) ==========
;G1 E50 F200          ;move extruder
;M400                ;finish moves
;M106 P1 S255        ;set Fan Speed
;G92 E0              ;set extruder position
;G1 E5 F300          ;move extruder
;M109 S{nozzle_temperature_initial_layer[initial_extruder]-20} ; drop nozzle temp, make filament shrink a bit
;G92 E0              ;set extruder position
;G1 E-0.5 F300       ;move extruder

;===== vibrate/shake toolhead
;G1 X70 F9000
;G1 X76 F15000
;G1 X65 F15000
;G1 X76 F15000
;G1 X65 F15000      ; shake to put down garbage
;G1 X80 F6000
;G1 X95 F15000
;G1 X80 F15000
;G1 X165 F15000; wipe and shake
;M400               ;finish moves
;M106 P1 S0         ;set Fan Speed
;===== prepare print temperature and material end =====


;===== wipe nozzle ===============================
M1002 gcode_claim_action : 14
M975 S1
M106 S255
G1 X65 Y230 F18000
G1 Y264 F6000
M109 S170
G1 X100 F18000 ; first wipe mouth

G0 X135 Y253 F20000  ; move to exposed steel surface edge
G28 Z P0 T300; home z with low precision,permit 300deg temperature
G29.2 S0 ; turn off ABL
G0 Z5 F20000

G1 X60 Y265
G92 E0
G1 E-0.5 F300 ; retrack more
G1 X100 F5000; second wipe mouth
G1 X70 F15000
G1 X100 F5000
G1 X70 F15000
G1 X100 F5000
G1 X70 F15000
G1 X100 F5000
G1 X70 F15000
G1 X90 F5000
G0 X128 Y261 Z-1.5 F20000  ; move to exposed steel surface and stop the nozzle
M104 S140 ; set temp down to heatbed acceptable
M106 S255 ; turn on fan (G28 has turn off fan)

M221 S; push soft endstop status
M221 Z0 ;turn off Z axis endstop
G0 Z0.5 F20000
G0 X125 Y259.5 Z-1.01
G0 X131 F211
G0 X124
G0 Z0.5 F20000
G0 X125 Y262.5
G0 Z-1.01
G0 X131 F211
G0 X124
G0 Z0.5 F20000
G0 X125 Y260.0
G0 Z-1.01
G0 X131 F211
G0 X124
G0 Z0.5 F20000
G0 X125 Y262.0
G0 Z-1.01
G0 X131 F211
G0 X124
G0 Z0.5 F20000
G0 X125 Y260.5
G0 Z-1.01
G0 X131 F211
G0 X124
G0 Z0.5 F20000
G0 X125 Y261.5
G0 Z-1.01
G0 X131 F211
G0 X124
G0 Z0.5 F20000
G0 X125 Y261.0
G0 Z-1.01
G0 X131 F211
G0 X124
G0 X128
G2 I0.5 J0 F300
G2 I0.5 J0 F300
G2 I0.5 J0 F300
G2 I0.5 J0 F300

M109 S140 ; wait nozzle temp down to heatbed acceptable
G2 I0.5 J0 F3000
G2 I0.5 J0 F3000
G2 I0.5 J0 F3000
G2 I0.5 J0 F3000

M221 R; pop softend status
G1 Z10 F1200
M400
G1 Z10
G1 F30000
G1 X230 Y15
G29.2 S1 ; turn on ABL
;G28 ; home again after hard wipe mouth
M106 S0 ; turn off fan , too noisy
;===== wipe nozzle end ================================

: uncomment line below to disable auto bed leveling
;M1002 set_flag g29_before_print_flag=0
;===== bed leveling ==================================
M1002 judge_flag g29_before_print_flag
M622 J1

    M1002 gcode_claim_action : 1
    G29 A X0 Y0 I256 J256
    M400
    M500 ; save cali data

M623
;===== bed leveling end ================================

;===== home after wipe mouth============================
M1002 judge_flag g29_before_print_flag
M622 J0

    M1002 gcode_claim_action : 13
    G28

M623
;===== home after wipe mouth end =======================

M975 S1 ; turn on vibration supression

;=============turn on fans to prevent PLA jamming=================
    M106 P3 S180
    ;Prevent PLA from jamming
M106 P2 S100 ; turn on big fan ,to cool down toolhead

M104 S<TOOLTEMP> ; set extrude temp earlier, to reduce wait time

;===== mech mode fast check============================
G1 X128 Y128 Z10 F20000
M400 P200
M970.3 Q1 A7 B30 C80  H15 K0
M974 Q1 S2 P0

G1 X128 Y128 Z10 F20000
M400 P200
M970.3 Q0 A7 B30 C90 Q0 H15 K0
M974 Q0 S2 P0

M975 S1
G1 F30000
G1 X230 Y15
G28 X ; re-home XY
;===== fmech mode fast check============================


;===== nozzle load line ===============================
M975 S1
G90
M83
T1000
G1 X18.0 Y1.0 Z0.8 F18000;Move to start position
M109 S<TOOLTEMP>
G1 Z0.2
G0 E2 F300
G0 X240 E15 F6033.27
G0 Y11 E0.700 F1508.32
G0 X239.5
G0 E0.2
G0 Y1.5 E0.700
G0 X18 E15 F6033.27
M400

;===== for Textured PEI Plate , lower the nozzle as the nozzle was touching topmost of the texture when homing ==
;curr_bed_type=High Temp Plate

;========turn off light and wait extrude temperature =============
M1002 gcode_claim_action : 0
M106 S0 ; turn off fan
M106 P2 S0 ; turn off big fan
M106 P3 S0 ; turn off chamber fan

M975 S1 ; turn on mech mode supression
G90 : absolute positioning
M83 ; extrusion is in relative coordinates
G21 : metric coordinates
T1000
; filament start gcode